communes/329.svg

<?xml version="1.0" encoding="UTF-8" standalone="no"?>
<svg
   xmlns:dc="http://purl.org/dc/elements/1.1/"
   xmlns:cc="http://web.resource.org/cc/"
   xmlns:rdf="http://www.w3.org/1999/02/22-rdf-syntax-ns#"
   xmlns:svg="http://www.w3.org/2000/svg"
   xmlns="http://www.w3.org/2000/svg"
   xmlns:xlink="http://www.w3.org/1999/xlink"
   xmlns:sodipodi="http://sodipodi.sourceforge.net/DTD/sodipodi-0.dtd"
   xmlns:inkscape="http://www.inkscape.org/namespaces/inkscape"
   height="763"
   width="603"
   version="1.0"
   id="svg20"
   sodipodi:version="0.32"
   inkscape:version="0.44.1"
   sodipodi:docname="Langenthal-coat of arms.svg"
   sodipodi:docbase="F:\MIS DOCUMENTOS\Mis imágenes\Encyclopédie\Escudos de Suiza">
  <metadata
     id="metadata31">
    <rdf:RDF>
      <cc:Work
         rdf:about="">
        <dc:format>image/svg+xml</dc:format>
        <dc:type
           rdf:resource="http://purl.org/dc/dcmitype/StillImage" />
        <dc:date>07-AUG-2006</dc:date>
        <dc:creator>
          <cc:Agent>
            <dc:title>Jérôme BLUM (wagner51)</dc:title>
          </cc:Agent>
        </dc:creator>
        <cc:license
           rdf:resource="http://creativecommons.org/licenses/GPL/2.0/" />
        <dc:coverage />
        <dc:description>Gabarit pour le Projet:Blasons de WIkipédia</dc:description>
        <dc:subject>
          <rdf:Bag>
            <rdf:li>blason suisse modèle gabarit projet blasons</rdf:li>
          </rdf:Bag>
        </dc:subject>
        <dc:language>fr</dc:language>
        <dc:title>Gabrit d'un blason suisse</dc:title>
      </cc:Work>
      <cc:License
         rdf:about="http://creativecommons.org/licenses/GPL/2.0/">
        <cc:permits
           rdf:resource="http://web.resource.org/cc/Reproduction" />
        <cc:permits
           rdf:resource="http://web.resource.org/cc/Distribution" />
        <cc:requires
           rdf:resource="http://web.resource.org/cc/Notice" />
        <cc:permits
           rdf:resource="http://web.resource.org/cc/DerivativeWorks" />
        <cc:requires
           rdf:resource="http://web.resource.org/cc/ShareAlike" />
        <cc:requires
           rdf:resource="http://web.resource.org/cc/SourceCode" />
      </cc:License>
    </rdf:RDF>
  </metadata>
  <defs
     id="defs29">
    <linearGradient
       id="linearGradient2893">
      <stop
         style="stop-color:#ffffff;stop-opacity:0.3137255;"
         offset="0"
         id="stop2895" />
      <stop
         id="stop2897"
         offset="0.19"
         style="stop-color:#ffffff;stop-opacity:0.25098041;" />
      <stop
         style="stop-color:#6b6b6b;stop-opacity:0.1254902;"
         offset="0.60000002"
         id="stop2901" />
      <stop
         style="stop-color:#000000;stop-opacity:0.1254902;"
         offset="1"
         id="stop2899" />
    </linearGradient>
    <linearGradient
       id="linearGradient2955">
      <stop
         style="stop-color:white;stop-opacity:0;"
         offset="0"
         id="stop2965" />
      <stop
         style="stop-color:black;stop-opacity:0.64583331;"
         offset="1"
         id="stop2959" />
    </linearGradient>
    <radialGradient
       inkscape:collect="always"
       xlink:href="#linearGradient2893"
       id="radialGradient3236"
       gradientUnits="userSpaceOnUse"
       gradientTransform="matrix(1.215027,1.531577e-24,1.464684e-23,1.266667,-839.1924,-490.4894)"
       cx="858.04236"
       cy="579.93323"
       fx="858.04236"
       fy="579.93323"
       r="300" />
  </defs>
  <sodipodi:namedview
     inkscape:window-height="682"
     inkscape:window-width="1024"
     inkscape:pageshadow="2"
     inkscape:pageopacity="0.0"
     guidetolerance="10.0"
     gridtolerance="10.0"
     objecttolerance="10.0"
     borderopacity="1.0"
     bordercolor="#666666"
     pagecolor="#ffffff"
     id="base"
     inkscape:zoom="0.50619946"
     inkscape:cx="70.908203"
     inkscape:cy="448.60483"
     inkscape:window-x="-4"
     inkscape:window-y="-4"
     inkscape:current-layer="layer1"
     showgrid="true" />
  <desc
     id="desc22">Coat of Arms of Canton of Freiburg (Fribourg)</desc>
  <g
     inkscape:groupmode="layer"
     id="layer1"
     inkscape:label="Fond écu"
     sodipodi:insensitive="true">
    <path
       id="path1899"
       d="M 1.5,1.49998 L 1.5,460.3679 C 1.5,626.6785 135.81456,761.5 301.49999,761.5 C 467.18543,761.5 601.5,626.6785 601.5,460.3679 L 601.5,1.49998 L 1.5,1.49998 z "
       style="fill:#fcef3c;fill-opacity:1" />
    <path
       style="fill:#2b5df2;fill-opacity:1;fill-rule:evenodd;stroke:black;stroke-width:2.99999952;stroke-linecap:butt;stroke-linejoin:miter;stroke-miterlimit:4;stroke-dasharray:none;stroke-opacity:1"
       d="M 106.9375,1.8125 L 2.25,2.4375 L 1.5,92.75 C 74.247717,109.71768 29.035912,195.85349 95.21875,257.5625 C 161.40159,319.2715 203.74889,315.74381 247.65625,352.875 C 291.56362,390.0062 279.97559,455.34408 327.78125,489.34375 C 375.58691,523.34345 420.34392,518.80549 473.5625,568.28125 C 510.14054,602.2868 510.6258,627.71775 522.9375,663.53125 C 563.28928,619.24123 590.62327,562.79691 598.875,500.3125 C 593.7376,493.27132 587.28018,486.0416 579,478.34375 C 525.78144,428.86798 481.0244,433.40593 433.21875,399.40625 C 385.41307,365.40657 397.03238,300.03746 353.125,262.90625 C 309.21763,225.77505 266.83908,229.33401 200.65625,167.625 C 134.47341,105.916 179.68522,19.81143 106.9375,2.84375 L 106.9375,1.8125 z "
       id="path12752" />
    <path
       style="fill:#2b5df2;fill-opacity:1;fill-rule:evenodd;stroke:black;stroke-width:2.99999952;stroke-linecap:butt;stroke-linejoin:miter;stroke-miterlimit:4;stroke-dasharray:none;stroke-opacity:1"
       d="M 1.5,333.25 L 1.5,460.375 C 1.5,470.39681 2.0158246,480.29199 2.96875,490.0625 C 18.330234,497.37335 32.906177,505.24504 47.65625,517.71875 C 91.563622,554.84993 79.975589,620.21908 127.78125,654.21875 C 175.5869,688.21846 220.34392,683.64924 273.5625,733.125 C 284.34379,743.14805 291.98101,752.44671 297.71875,761.46875 C 298.9781,761.48437 300.23696,761.5 301.5,761.5 C 346.26042,761.5 388.72332,751.6419 426.875,734 C 415.95923,700.507 414.03145,675.75523 379,643.1875 C 325.78141,593.71174 281.0244,598.28093 233.21875,564.28125 C 185.41309,530.28158 197.03238,464.91246 153.125,427.78125 C 109.40732,390.81047 67.192401,394.13318 1.5,333.25 z "
       id="path21076" />
    <path
       style="fill:#2b5df2;fill-opacity:1;fill-rule:evenodd;stroke:black;stroke-width:2.99999952;stroke-linecap:butt;stroke-linejoin:miter;stroke-miterlimit:4;stroke-dasharray:none;stroke-opacity:1"
       d="M 252.40625,1.5 C 258.0133,30.966691 264.97137,64.203537 295.21875,92.40625 C 361.4016,154.11526 403.74889,150.58756 447.65625,187.71875 C 491.56363,224.84995 479.97559,290.21908 527.78125,324.21875 C 552.64511,341.9021 576.66492,349.1487 601.5,359 L 601.5,193.1875 C 587.11429,160.7355 582.75316,122.83694 553.125,97.78125 C 509.21763,60.650057 466.83908,64.17776 400.65625,2.46875 C 400.31155,2.1473489 399.99494,1.8227103 399.65625,1.5 L 252.40625,1.5 z "
       id="path21078" />
  </g>
  <g
     inkscape:groupmode="layer"
     id="layer2"
     inkscape:label="Meubles"
     sodipodi:insensitive="true" />
  <g
     inkscape:groupmode="layer"
     id="layer3"
     inkscape:label="Reflet final"
     style="display:inline"
     sodipodi:insensitive="true">
    <path
       style="fill:url(#radialGradient3236);fill-opacity:1"
       d="M 1.5,1.5 L 1.5,460.3679 C 1.5,626.67854 135.81454,761.5 301.49993,761.5 C 467.1854,761.5 601.5,626.67854 601.5,460.3679 L 601.5,1.5 L 1.5,1.5 z "
       id="path2346" />
  </g>
  <g
     inkscape:groupmode="layer"
     id="layer4"
     inkscape:label="Contour final"
     style="display:inline"
     sodipodi:insensitive="true">
    <path
       style="fill:none;fill-opacity:1;stroke:black;stroke-width:3;stroke-miterlimit:4;stroke-dasharray:none;stroke-opacity:1"
       d="M 1.5,1.5 L 1.5,460.36794 C 1.5,626.67854 135.81454,761.5 301.49993,761.5 C 467.1854,761.5 601.5,626.67854 601.5,460.36794 L 601.5,1.5 L 1.5,1.5 z "
       id="path3239" />
  </g>
</svg>

<?xml version="1.0" encoding="UTF-8"?>
<svg version="1.0" viewBox="0 0 603 763" xmlns="http://www.w3.org/2000/svg" xmlns:cc="http://web.resource.org/cc/" xmlns:dc="http://purl.org/dc/elements/1.1/" xmlns:rdf="http://www.w3.org/1999/02/22-rdf-syntax-ns#" xmlns:xlink="http://www.w3.org/1999/xlink">
<metadata>
<rdf:RDF>
<cc:Work rdf:about="">
<dc:format>image/svg+xml</dc:format>
<dc:type rdf:resource="http://purl.org/dc/dcmitype/StillImage"/>
<dc:date>07-AUG-2006</dc:date>
<dc:creator>
<cc:Agent>
<dc:title>Jérôme BLUM (wagner51)</dc:title>
</cc:Agent>
</dc:creator>
<cc:license rdf:resource="http://creativecommons.org/licenses/GPL/2.0/"/>
<dc:coverage/>
<dc:description>Gabarit pour le Projet:Blasons de WIkipédia</dc:description>
<dc:subject>
<rdf:Bag>
<rdf:li>blason suisse modèle gabarit projet blasons</rdf:li>
</rdf:Bag>
</dc:subject>
<dc:language>fr</dc:language>
<dc:title>Gabrit d'un blason suisse</dc:title>
</cc:Work>
<cc:License rdf:about="http://creativecommons.org/licenses/GPL/2.0/">
<cc:permits rdf:resource="http://web.resource.org/cc/Reproduction"/>
<cc:permits rdf:resource="http://web.resource.org/cc/Distribution"/>
<cc:requires rdf:resource="http://web.resource.org/cc/Notice"/>
<cc:permits rdf:resource="http://web.resource.org/cc/DerivativeWorks"/>
<cc:requires rdf:resource="http://web.resource.org/cc/ShareAlike"/>
<cc:requires rdf:resource="http://web.resource.org/cc/SourceCode"/>
</cc:License>
</rdf:RDF>
</metadata>
<defs>
<radialGradient id="a" cx="858.04" cy="579.93" r="300" gradientTransform="matrix(1.215 1.5316e-24 1.4647e-23 1.2667 -839.19 -490.49)" gradientUnits="userSpaceOnUse">
<stop stop-color="#fff" stop-opacity=".31373" offset="0"/>
<stop stop-color="#fff" stop-opacity=".25098" offset=".19"/>
<stop stop-color="#6b6b6b" stop-opacity=".12549" offset=".6"/>
<stop stop-opacity=".12549" offset="1"/>
</radialGradient>
</defs>
<desc>Coat of Arms of Canton of Freiburg (Fribourg)</desc>
<g>
<path d="m1.5 1.5v458.87c0 166.31 134.31 301.13 300 301.13 165.69 0 300-134.82 300-301.13v-458.87h-600z" fill="#fcef3c"/>
<path d="m106.94 1.8125-104.69 0.625-0.75 90.312c72.748 16.968 27.536 103.1 93.719 164.81 66.183 61.709 108.53 58.181 152.44 95.312 43.907 37.131 32.319 102.47 80.125 136.47 47.806 34 92.563 29.462 145.78 78.938 36.578 34.006 37.063 59.436 49.375 95.25 40.352-44.29 67.686-100.73 75.938-163.22-5.1374-7.0412-11.595-14.271-19.875-21.969-53.219-49.476-97.976-44.938-145.78-78.938-47.806-34-36.186-99.369-80.094-136.5-43.907-37.131-86.286-33.572-152.47-95.281-66.183-61.709-20.971-147.81-93.719-164.78v-1.0312z" fill="#2b5df2" fill-rule="evenodd" stroke="#000" stroke-width="3"/>
<path d="m1.5 333.25v127.12c0 10.022 0.51582 19.917 1.4688 29.688 15.361 7.3108 29.937 15.183 44.688 27.656 43.907 37.131 32.319 102.5 80.125 136.5 47.806 34 92.563 29.43 145.78 78.906 10.781 10.023 18.419 19.322 24.156 28.344 1.2594 0.01562 2.5182 0.03125 3.7812 0.03125 44.76 0 87.223-9.8581 125.38-27.5-10.916-33.493-12.844-58.245-47.875-90.812-53.219-49.476-97.976-44.907-145.78-78.906-47.806-34-36.186-99.369-80.094-136.5-43.718-36.971-85.933-33.648-151.62-94.531z" fill="#2b5df2" fill-rule="evenodd" stroke="#000" stroke-width="3"/>
<path d="m252.41 1.5c5.607 29.467 12.565 62.704 42.812 90.906 66.183 61.709 108.53 58.181 152.44 95.312 43.907 37.131 32.319 102.5 80.125 136.5 24.864 17.683 48.884 24.93 73.719 34.781v-165.81c-14.386-32.452-18.747-70.351-48.375-95.406-43.907-37.131-86.286-33.603-152.47-95.312-0.3447-0.3214-0.66131-0.64604-1-0.96875h-147.25z" fill="#2b5df2" fill-rule="evenodd" stroke="#000" stroke-width="3"/>
</g>
<g>
<path d="m1.5 1.5v458.87c0 166.31 134.31 301.13 300 301.13 165.69 0 300-134.82 300-301.13v-458.87h-600z" fill="url(#a)"/>
<path d="m1.5 1.5v458.87c0 166.31 134.31 301.13 300 301.13 165.69 0 300-134.82 300-301.13v-458.87h-600z" fill="none" stroke="#000" stroke-width="3"/>
</g>
</svg>
